X:1
T:Hullah, 77.77.77
T:Hullah, 77.77.77
T:Cantica Laudis, 1850
T:Public Domain Courtesy of the Cyber Hymnal™
C:Cantica Laudis, 1850
Z:Public Domain
Z:Courtesy of the Cyber Hymnal™
%%score ( 1 2 ) ( 3 4 )
L:1/8
Q:1/4=115
M:3/4
K:G
V:1 treble 
V:2 treble 
V:3 bass 
V:4 bass 
V:1
 [GB]4 [FA]2 | G4 ([EA][GB]) | [Ac]4 [GB]2 | ([GB]2 [FA]2) z2 | ([FA]2 [GB]2) [Ac]2 | %5
 ([Bd]3 [GB]) ([Ac][EA]) | [DG]4 [DF]2 | [DG]4 z2 | ([FA]2 [DF]2) [EG]2 | ([FA]2 [Ad]2) [GB]2 | %10
 ([FA]3 [DF]) ([CE][EG]) | ([EG]2 [DF]2) z2 | ([FA]2 [DF]2) [EG]2 | ([FA]2 [Ad]2) [GB]2 | %14
 ([FA]2 [DF]2) [^CE]2 | D4 z2 | [GB]4 [FA]2 | G4 ([EA][GB]) | [Ac]4 [GB]2 | ([GB]2 [FA]2) z2 | %20
 ([FA]2 [GB]2) [Ac]2 | ([Bd]3 [GB]) ([Ac][EA]) | [DG]4 [DF]2 | [DG]6 |] %24
V:2
 x6 | G4 x2 | x6 | x6 | x6 | x6 | x6 | x6 | x6 | x6 | x6 | x6 | x6 | x6 | x6 | D4 x2 | x6 | G4 x2 | %18
 x6 | x6 | x6 | x6 | x6 | x6 |] %24
V:3
 [G,D]4 [D,C]2 | B,4 ([C,C][B,,D]) | [A,,E]4 D2 | (D2 D2 D2) | D6 | D3 G (EC) | (B,2 A,2) z C | %7
 [G,,B,]4 z2 | D,4 D,2 | D,2 F,2 G,2 | A,4 A,,2 | D,4 z2 | D,4 D,2 | (D,2 F,2) G,2 | A,4 A,,2 | %15
 D,4 z2 | [G,D]4 [D,C]2 | B,4 ([C,C][B,,D]) | [A,,E]4 D2 | (D2 D2 D2) | D6 | (D3 G) (EC) | %22
 (B,2 A,2) z C | [G,,B,]6 |] %24
V:4
 x6 | (E,3 D,) x2 | x4 B,,C, | D,4 x2 | (D,C,) B,,2 A,,2 | G,,4 C,2 | D,4 D,2 | x6 | x6 | x6 | x6 | %11
 x6 | x6 | x6 | x6 | x6 | x6 | (E,3 D,) x2 | x4 B,,C, | D,4 x2 | (D,C, B,,2) A,,2 | G,,4 C,2 | %22
 D,4 D,2 | x6 |] %24

